X:1
T: Go mo maidh a thig an crun ...
T: Well may Charley wear the Crown
C:
R:Strathspey
Q: 128
K:Bm
M:4/4
L:1/16
|:f3e|d4 c3B B3c d3D|F4 A3B A4 f3e|d4 c3B B3c d3^E|F4 B3c B4 f3e|
d4 c3B B3c d3D|F4 A4 a4 z2g2|f3e d3c B3c d3^E|F4 B3c B4:|
|:BABc|d3c d2e2 f6 e2|e3d c2B2 A4 f2e2|d4 c3B B3c d3^E|F4 B3c B4 B3c|
d3c d2e2 f6 e2|e3d c3B a6 g2|f3e d3c B3c d3^E|F4 B3c B4:|
